X: 1506
T: the Bouncing Boy
T: an buacaill freapa.d.
R: reel
B: O'Neill's 1850 "Music of Ireland" #1506
O: O'Reilly
Z: transcribed by John B. Walsh, walsh@math.ubc.ca 8/23/96
M: C|
L: 1/8
K: G
(3(DEF) |: G2 BGA2 (3(Bcd) | edcA BEEF | G2BG A2 (3(Bcd) |1 edcA BGGD :|2 egfa g2 |] z2 | g2ge f2fd |
| e2fg afd2 | g2ge f2fd | efaf g2g2 || gabg fgaf | edeg fdd2 | g2(fg) eAAB | dcAF G2 |]
